public/library/bitget-wallet-token-icon-light.svg

<svg width="257" height="256" viewBox="0 0 257 256" fill="none" xmlns="http://www.w3.org/2000/svg">
<rect x="0.860352" width="256" height="256" rx="60" fill="#001F29"/>
<path d="M107.519 37.6134C97.1838 37.6081 86.8668 37.6029 76.4959 37.6187C70.2249 37.6187 67.8728 45.4915 72.5367 50.1548L143.135 120.753C145.338 122.768 146.712 124.958 146.762 127.846C146.712 130.733 145.338 132.923 143.135 134.938L72.5367 205.536C67.8728 210.2 70.2249 218.072 76.4959 218.072C86.8668 218.088 97.1838 218.083 107.519 218.078C112.693 218.075 117.872 218.072 123.064 218.072C129.857 218.072 133.897 214.444 137.526 210.815L201.196 147.145C206.278 142.063 210.824 135.316 210.763 127.846C210.824 120.375 206.278 113.628 201.196 108.547L137.526 44.8765C133.897 41.2477 129.857 37.6187 123.064 37.6187C117.872 37.6187 112.693 37.6161 107.519 37.6134Z" fill="white"/>
</svg>

<svg xmlns="http://www.w3.org/2000/svg" width="257" height="256" fill="none" viewBox="0 0 257 256"><rect width="256" height="256" x=".86" fill="#001f29" rx="60"/><path fill="#fff" d="M107.519 37.613c-10.335-.005-20.652-.01-31.023.006-6.271 0-8.623 7.873-3.96 12.536l70.599 70.598c2.203 2.015 3.577 4.205 3.627 7.093-.05 2.887-1.424 5.077-3.627 7.092l-70.598 70.598c-4.664 4.664-2.312 12.536 3.959 12.536 10.37.016 20.688.011 31.023.006 5.174-.003 10.353-.006 15.545-.006 6.793 0 10.833-3.628 14.462-7.257l63.67-63.67c5.082-5.082 9.628-11.829 9.567-19.299.061-7.471-4.485-14.218-9.567-19.299l-63.67-63.67c-3.629-3.63-7.669-7.258-14.462-7.258-5.192 0-10.371-.003-15.545-.006"/></svg>
